src/components/pages/careers/icons/heart.svg

<svg width="64" height="63" viewBox="0 0 64 63" fill="none" xmlns="http://www.w3.org/2000/svg">
<g filter="url(#filter0_dd_2974_21251)">
<path d="M44.5076 39.2622L44.5078 39.2621C47.1011 36.7076 49.1726 34.0204 50.6659 31.1906L50.6687 31.1854C52.1934 28.2823 53 25.2666 53 22.1691C53 20.1509 52.6786 18.2309 51.9901 16.4453C51.3262 14.7232 50.3951 13.1843 49.1796 11.8674C47.9667 10.5535 46.5372 9.53025 44.9068 8.82266C43.2681 8.09943 41.5257 7.74609 39.7118 7.74609C37.4114 7.74609 35.2694 8.34953 33.4122 9.64363C32.9091 9.99078 32.4372 10.3699 31.9968 10.7796C31.5611 10.3746 31.0957 9.99859 30.6008 9.65269C28.7458 8.34763 26.5962 7.74609 24.2882 7.74609C22.4725 7.74609 20.7285 8.10012 19.0884 8.82478C17.4722 9.53208 16.0501 10.5516 14.8331 11.8538L17.0249 13.9022L14.8331 11.8538C13.6009 13.1723 12.6592 14.7157 11.9923 16.4453L11.9883 16.4555L11.9844 16.4658C11.3131 18.2456 11 20.1584 11 22.1691C11 25.2666 11.8066 28.2823 13.3313 31.1854L13.3341 31.1906C14.8274 34.0204 16.8989 36.7076 19.4922 39.2621L19.4976 39.2674C22.0674 41.7859 25.0518 44.1626 28.4348 46.4041L28.441 46.4082L28.4472 46.4123C28.8691 46.6888 29.304 46.9387 29.7519 47.1601C30.3203 47.4476 31.1027 47.7461 32.0088 47.7461C32.9044 47.7461 33.6756 47.4552 34.2468 47.1611C34.709 46.9381 35.1528 46.6834 35.5768 46.3964C38.9672 44.1568 41.9499 41.7812 44.5076 39.2622Z" fill="white" stroke="white" stroke-width="6"/>
<path d="M32.0088 44.7461C32.2667 44.7461 32.5657 44.6564 32.9057 44.4771C33.2574 44.3097 33.5916 44.1185 33.9082 43.9033C37.1676 41.7514 39.999 39.4919 42.4025 37.1248C44.8178 34.7457 46.6878 32.3009 48.0127 29.7904C49.3376 27.2679 50 24.7275 50 22.1691C50 20.4715 49.7303 18.9233 49.191 17.5246C48.6517 16.1258 47.913 14.9184 46.9751 13.9022C46.0371 12.886 44.9468 12.109 43.704 11.571C42.4612 11.0211 41.1304 10.7461 39.7118 10.7461C37.9531 10.7461 36.4231 11.2004 35.1216 12.109C33.8202 13.0056 32.7826 14.1891 32.0088 15.6596C31.2233 14.2011 30.1798 13.0175 28.8784 12.109C27.5887 11.2004 26.0586 10.7461 24.2882 10.7461C22.8696 10.7461 21.5388 11.0211 20.296 11.571C19.065 12.109 17.9746 12.886 17.0249 13.9022C16.0752 14.9184 15.3307 16.1258 14.7914 17.5246C14.2638 18.9233 14 20.4715 14 22.1691C14 24.7275 14.6624 27.2679 15.9873 29.7904C17.3122 32.3009 19.1822 34.7457 21.5975 37.1248C24.0127 39.4919 26.8442 41.7514 30.0918 43.9033C30.4201 44.1185 30.7543 44.3097 31.0943 44.4771C31.446 44.6564 31.7509 44.7461 32.0088 44.7461Z" stroke="#171717" stroke-width="2"/>
<path d="M32.004 17.3261C32.004 14.8434 32.6227 10.7514 35.6404 10.489C37.5743 10.3209 39.5138 10.593 41.4476 10.6237C44.3663 10.67 47.6091 13.4711 48.1183 16.3992C48.3566 17.7692 48.912 19.0725 49.1482 20.4634C49.3372 21.5763 49.5443 22.6156 49.5443 23.7433C49.5443 25.4917 49.1986 26.6324 48.1183 28.0214C47.3597 28.9968 46.4296 29.8247 45.6069 30.7388C45.0684 31.3372 44.419 31.9784 43.7768 32.4738C43.1278 32.9745 42.6552 33.6633 42.018 34.1534C41.5593 34.5062 41.0788 35.1641 40.7029 35.6111C40.134 36.2876 39.3425 36.6029 38.5955 37.0372C38.3054 37.2059 37.9745 37.493 37.6369 37.568C37.2582 37.6521 37.1901 38.5776 37.1378 38.9306C36.9537 40.1729 36.513 41.0528 35.6404 41.9253C34.5668 42.999 32.8366 43.7079 31.291 43.7079" stroke="#171717" stroke-width="2" stroke-linecap="round"/>
<path d="M31.0049 43.7078C28.4344 43.7078 25.8496 41.4012 23.9619 39.8654C22.6237 38.7767 21.5021 37.518 20.3096 36.2924C18.6496 34.5863 17.4749 32.689 16.5227 30.5248C16.0981 29.5598 15.3738 28.7388 15.0333 27.7361C14.661 26.6401 14.6055 25.5322 14.6055 24.3849C14.6055 22.5481 15.6081 20.7685 15.9998 19.0056C16.2777 17.7553 16.8088 15.6934 17.9171 14.9018C18.7479 14.3083 19.6968 13.7505 20.6582 13.4044C21.6423 13.0502 22.5323 12.3633 23.5262 11.9863C25.0258 11.4175 27.7161 10.7287 29.1511 11.7724C29.987 12.3803 30.7076 12.9825 31.4011 13.7292C31.8139 14.1738 32.0144 14.7703 32.431 15.187" stroke="#171717" stroke-width="2" stroke-linecap="round"/>
</g>
<defs>
<filter id="filter0_dd_2974_21251" x="0" y="-0.253906" width="64" height="64" filterUnits="userSpaceOnUse" color-interpolation-filters="sRGB">
<feFlood flood-opacity="0" result="BackgroundImageFix"/>
<feColorMatrix in="SourceAlpha" type="matrix" values="0 0 0 0 0 0 0 0 0 0 0 0 0 0 0 0 0 0 127 0" result="hardAlpha"/>
<feOffset dy="2"/>
<feGaussianBlur stdDeviation="1"/>
<feComposite in2="hardAlpha" operator="out"/>
<feColorMatrix type="matrix" values="0 0 0 0 0 0 0 0 0 0 0 0 0 0 0 0 0 0 0.02 0"/>
<feBlend mode="normal" in2="BackgroundImageFix" result="effect1_dropShadow_2974_21251"/>
<feColorMatrix in="SourceAlpha" type="matrix" values="0 0 0 0 0 0 0 0 0 0 0 0 0 0 0 0 0 0 127 0" result="hardAlpha"/>
<feOffset dy="4"/>
<feGaussianBlur stdDeviation="4"/>
<feComposite in2="hardAlpha" operator="out"/>
<feColorMatrix type="matrix" values="0 0 0 0 0 0 0 0 0 0 0 0 0 0 0 0 0 0 0.06 0"/>
<feBlend mode="normal" in2="effect1_dropShadow_2974_21251" result="effect2_dropShadow_2974_21251"/>
<feBlend mode="normal" in="SourceGraphic" in2="effect2_dropShadow_2974_21251" result="shape"/>
</filter>
</defs>
</svg>

<svg xmlns="http://www.w3.org/2000/svg" width="64" height="63" fill="none"><g filter="url(#a)"><path fill="#fff" stroke="#fff" stroke-width="6" d="M44.508 39.262c2.593-2.554 4.665-5.242 6.158-8.071l.003-.006C52.193 28.282 53 25.267 53 22.17c0-2.018-.321-3.938-1.01-5.724-.664-1.722-1.595-3.26-2.81-4.578a12.604 12.604 0 0 0-4.273-3.044 12.754 12.754 0 0 0-5.195-1.077c-2.3 0-4.443.604-6.3 1.898-.503.347-.975.726-1.415 1.136A12.915 12.915 0 0 0 30.6 9.653c-1.855-1.305-4.005-1.907-6.313-1.907-1.816 0-3.56.354-5.2 1.079a12.833 12.833 0 0 0-4.255 3.029l2.192 2.048-2.192-2.048c-1.232 1.318-2.174 2.862-2.84 4.591l-.005.01-.004.01c-.67 1.78-.984 3.693-.984 5.704 0 3.098.807 6.113 2.331 9.016l.003.006c1.493 2.83 3.565 5.517 6.158 8.071l.006.005c2.57 2.519 5.554 4.896 8.937 7.137l.006.004.006.004c.422.277.857.527 1.305.748.568.288 1.35.586 2.257.586.895 0 1.667-.29 2.238-.585.462-.223.906-.478 1.33-.765 3.39-2.24 6.373-4.615 8.93-7.134Z"/><path stroke="#171717" stroke-width="2" d="M32.009 44.746c.258 0 .557-.09.897-.269a7.56 7.56 0 0 0 1.002-.574c3.26-2.152 6.091-4.411 8.495-6.778 2.415-2.38 4.285-4.824 5.61-7.335C49.338 27.268 50 24.727 50 22.17c0-1.699-.27-3.247-.809-4.645-.54-1.4-1.278-2.607-2.216-3.623a9.603 9.603 0 0 0-3.271-2.331 9.755 9.755 0 0 0-3.992-.825c-1.759 0-3.289.454-4.59 1.363-1.302.897-2.34 2.08-3.113 3.55-.786-1.458-1.83-2.642-3.13-3.55-1.29-.909-2.82-1.363-4.59-1.363-1.42 0-2.75.275-3.993.825a9.834 9.834 0 0 0-3.271 2.331c-.95 1.016-1.694 2.224-2.234 3.623-.527 1.398-.791 2.947-.791 4.644 0 2.558.662 5.099 1.987 7.621 1.325 2.51 3.195 4.956 5.61 7.335 2.416 2.367 5.247 4.626 8.495 6.778.328.215.662.407 1.002.574.352.18.657.27.915.27Z"/><path stroke="#171717" stroke-linecap="round" stroke-width="2" d="M32.004 17.326c0-2.483.619-6.575 3.636-6.837 1.934-.168 3.874.104 5.808.135 2.918.046 6.161 2.847 6.67 5.775.239 1.37.794 2.674 1.03 4.064.19 1.113.396 2.153.396 3.28 0 1.749-.345 2.89-1.426 4.278-.758.976-1.688 1.804-2.511 2.718-.539.598-1.188 1.24-1.83 1.735-.65.5-1.122 1.19-1.759 1.68-.459.352-.94 1.01-1.315 1.457-.569.677-1.36.992-2.108 1.426-.29.169-.62.456-.958.531-.379.084-.447 1.01-.5 1.363-.183 1.242-.624 2.122-1.497 2.994-1.073 1.074-2.803 1.783-4.349 1.783"/><path stroke="#171717" stroke-linecap="round" stroke-width="2" d="M31.005 43.708c-2.57 0-5.155-2.307-7.043-3.843-1.338-1.088-2.46-2.347-3.652-3.573-1.66-1.706-2.835-3.603-3.787-5.767-.425-.965-1.15-1.786-1.49-2.789-.372-1.096-.428-2.204-.428-3.351 0-1.837 1.003-3.617 1.395-5.38.278-1.25.809-3.312 1.917-4.103.83-.594 1.78-1.151 2.741-1.498.984-.354 1.874-1.04 2.868-1.418 1.5-.569 4.19-1.257 5.625-.214.836.608 1.557 1.21 2.25 1.957.413.445.613 1.041 1.03 1.458"/></g><defs><filter id="a" width="64" height="64" x="0" y="-.254" color-interpolation-filters="sRGB" filterUnits="userSpaceOnUse"><feFlood flood-opacity="0" result="BackgroundImageFix"/><feColorMatrix in="SourceAlpha" result="hardAlpha" values="0 0 0 0 0 0 0 0 0 0 0 0 0 0 0 0 0 0 127 0"/><feOffset dy="2"/><feGaussianBlur stdDeviation="1"/><feComposite in2="hardAlpha" operator="out"/><feColorMatrix values="0 0 0 0 0 0 0 0 0 0 0 0 0 0 0 0 0 0 0.02 0"/><feBlend in2="BackgroundImageFix" result="effect1_dropShadow_2974_21251"/><feColorMatrix in="SourceAlpha" result="hardAlpha" values="0 0 0 0 0 0 0 0 0 0 0 0 0 0 0 0 0 0 127 0"/><feOffset dy="4"/><feGaussianBlur stdDeviation="4"/><feComposite in2="hardAlpha" operator="out"/><feColorMatrix values="0 0 0 0 0 0 0 0 0 0 0 0 0 0 0 0 0 0 0.06 0"/><feBlend in2="effect1_dropShadow_2974_21251" result="effect2_dropShadow_2974_21251"/><feBlend in="SourceGraphic" in2="effect2_dropShadow_2974_21251" result="shape"/></filter></defs></svg>
